img/square.svg

<svg width="92" height="92" viewBox="0 0 92 92" fill="none" xmlns="http://www.w3.org/2000/svg">
<circle cx="46" cy="46" r="45" stroke="#EBC317" stroke-width="2"/>
<g clip-path="url(#clip0_0_1)">
<path d="M70 30.4706V22H61.5294V24.8235H30.4706V22H22V30.4706H24.8235V61.5294H22V70H30.4706V67.1765H61.5294V70H70V61.5294H67.1765V30.4706H70ZM64.3529 24.8235H67.1765V27.6471H64.3529V24.8235ZM24.8235 24.8235H27.6471V27.6471H24.8235V24.8235ZM27.6471 67.1765H24.8235V64.3529H27.6471V67.1765ZM67.1765 67.1765H64.3529V64.3529H67.1765V67.1765ZM64.3529 61.5294H61.5294V64.3529H30.4706V61.5294H27.6471V30.4706H30.4706V27.6471H61.5294V30.4706H64.3529V61.5294Z" fill="#EBC317"/>
<path d="M34.0179 44.0078L43.9991 34.0266L45.9953 36.0229L36.0141 46.004L34.0179 44.0078Z" fill="#EBC317"/>
<path d="M45.9945 55.9871L55.9758 46.0058L57.972 48.0021L47.9907 57.9833L45.9945 55.9871Z" fill="#EBC317"/>
<path d="M37.0118 52.9917L52.9817 37.0218L54.9779 39.0181L39.008 54.9879L37.0118 52.9917Z" fill="#EBC317"/>
</g>
<defs>
<clipPath id="clip0_0_1">
<rect width="48" height="48" fill="white" transform="translate(22 22)"/>
</clipPath>
</defs>
</svg>

<svg width="92" height="92" fill="none" xmlns="http://www.w3.org/2000/svg"><circle cx="46" cy="46" r="45" stroke="#EBC317" stroke-width="2"/><g clip-path="url(#a)" fill="#EBC317"><path d="M70 30.47V22h-8.47v2.823H30.47V22H22v8.47h2.823v31.06H22V70h8.47v-2.823h31.06V70H70v-8.47h-2.823V30.47H70zm-5.647-5.646h2.824v2.823h-2.824v-2.823zm-39.53 0h2.824v2.823h-2.823v-2.823zm2.824 42.353h-2.823v-2.824h2.823v2.824zm39.53 0h-2.824v-2.824h2.824v2.824zm-2.824-5.648h-2.824v2.824H30.471v-2.824h-2.824V30.471h2.824v-2.824h31.058v2.824h2.824v31.058z"/><path d="m34.018 44.008 9.981-9.981 1.996 1.996-9.98 9.981-1.997-1.996zM45.995 55.987l9.98-9.981 1.997 1.996-9.981 9.981-1.996-1.996zM37.012 52.992l15.97-15.97 1.996 1.996-15.97 15.97-1.996-1.996z"/></g><defs><clipPath id="a"><path fill="#fff" transform="translate(22 22)" d="M0 0h48v48H0z"/></clipPath></defs></svg>
